icons/arrow-square-downB.svg

<svg width="24" height="24" viewBox="0 0 24 24" fill="none" xmlns="http://www.w3.org/2000/svg">
<path d="M3 15V9C3 5.7 5.7 3 9 3H15C18.3 3 21 5.7 21 9V15C21 18.3 18.3 21 15 21H9C5.6 21 3 18.3 3 15Z" fill="black"/>
<path fill-rule="evenodd" clip-rule="evenodd" d="M9 3.75C6.11421 3.75 3.75 6.11421 3.75 9V15C3.75 17.894 6.02236 20.25 9 20.25H15C17.8858 20.25 20.25 17.8858 20.25 15V9C20.25 6.11421 17.8858 3.75 15 3.75H9ZM2.25 9C2.25 5.28579 5.28579 2.25 9 2.25H15C18.7142 2.25 21.75 5.28579 21.75 9V15C21.75 18.7142 18.7142 21.75 15 21.75H9C5.17764 21.75 2.25 18.706 2.25 15V9Z" fill="black"/>
<path d="M14.8 12.6L12.3 15.1C12.1 15.3 11.8 15.3 11.6 15.1L9.10004 12.6" fill="black"/>
<path fill-rule="evenodd" clip-rule="evenodd" d="M8.56971 12.0696C8.8626 11.7768 9.33747 11.7768 9.63037 12.0696L11.95 14.3893L14.2697 12.0696C14.5626 11.7768 15.0375 11.7768 15.3304 12.0696C15.6233 12.3625 15.6233 12.8374 15.3304 13.1303L12.8304 15.6303C12.3375 16.1232 11.5626 16.1232 11.0697 15.6303L8.56971 13.1303C8.27681 12.8374 8.27681 12.3625 8.56971 12.0696Z" fill="white"/>
<path fill-rule="evenodd" clip-rule="evenodd" d="M12 7.84998C12.4142 7.84998 12.75 8.18576 12.75 8.59998V14.6C12.75 15.0142 12.4142 15.35 12 15.35C11.5858 15.35 11.25 15.0142 11.25 14.6V8.59998C11.25 8.18576 11.5858 7.84998 12 7.84998Z" fill="white"/>
</svg>

<svg xmlns="http://www.w3.org/2000/svg" fill="none" viewBox="0 0 24 24">
  <path fill="#000" d="M3 15V9c0-3.3 2.7-6 6-6h6c3.3 0 6 2.7 6 6v6c0 3.3-2.7 6-6 6H9c-3.4 0-6-2.7-6-6Z"/>
  <path fill="#000" fill-rule="evenodd" d="M9 3.75C6.114 3.75 3.75 6.114 3.75 9v6c0 2.894 2.272 5.25 5.25 5.25h6c2.886 0 5.25-2.364 5.25-5.25V9c0-2.886-2.364-5.25-5.25-5.25H9ZM2.25 9c0-3.714 3.036-6.75 6.75-6.75h6c3.714 0 6.75 3.036 6.75 6.75v6c0 3.714-3.036 6.75-6.75 6.75H9c-3.822 0-6.75-3.044-6.75-6.75V9Z" clip-rule="evenodd"/>
  <path fill="#000" d="m14.8 12.6-2.5 2.5c-.2.2-.5.2-.7 0l-2.5-2.5"/>
  <path fill="#fff" fill-rule="evenodd" d="M8.57 12.07a.75.75 0 0 1 1.06 0l2.32 2.32 2.32-2.32a.75.75 0 0 1 1.06 1.06l-2.5 2.5a1.233 1.233 0 0 1-1.76 0l-2.5-2.5a.75.75 0 0 1 0-1.06Z" clip-rule="evenodd"/>
  <path fill="#fff" fill-rule="evenodd" d="M12 7.85a.75.75 0 0 1 .75.75v6a.75.75 0 0 1-1.5 0v-6a.75.75 0 0 1 .75-.75Z" clip-rule="evenodd"/>
</svg>
